;FLAVOR:Marlin
;TIME:19520
;Filament used: 16.8518m
;Layer height: 0.2
;MINX:110.215
;MINY:99.517
;MINZ:0.2
;MAXX:213.379
;MAXY:204.038
;MAXZ:25.8
;Generated with Cura_SteamEngine 5.2.2
M140 S50
M105
M190 S50
M104 S200
M105
M109 S200
M82 ;absolute extrusion mode
M201 X500.00 Y500.00 Z100.00 E5000.00 ;Setup machine max acceleration
M203 X500.00 Y500.00 Z10.00 E50.00 ;Setup machine max feedrate
M204 P500.00 R1000.00 T500.00 ;Setup Print/Retract/Travel acceleration
M205 X8.00 Y8.00 Z0.40 E5.00 ;Setup Jerk
M220 S100 ;Reset Feedrate
M221 S100 ;Reset Flowrate

G28 ;Home

G92 E0 ;Reset Extruder
G1 Z2.0 F3000 ;Move Z Axis up
G1 X10.1 Y20 Z0.28 F5000.0 ;Move to start position
G1 X10.1 Y200.0 Z0.28 F1500.0 E15 ;Draw the first line
G1 X10.4 Y200.0 Z0.28 F5000.0 ;Move to side a little
G1 X10.4 Y20 Z0.28 F1500.0 E30 ;Draw the second line
G92 E0 ;Reset Extruder
G1 Z2.0 F3000 ;Move Z Axis up

G92 E0
G92 E0
G1 F2700 E-5
;LAYER_COUNT:129
;LAYER:0
M107
G0 F6000 X112.095 Y102.239 Z0.2
;TYPE:SKIRT
G1 F2700 E0
G1 F1200 X112.638 Y101.666 E0.02626
G1 X113.237 Y101.151 E0.05253
G1 X113.885 Y100.7 E0.07879
G1 X114.576 Y100.316 E0.10508
G1 X115.301 Y100.004 E0.13133
G1 X116.054 Y99.767 E0.15759
G1 X116.828 Y99.608 E0.18387
G1 X117.613 Y99.527 E0.21012
G1 X118.015 Y99.517 E0.22349
G1 X172.015 Y99.517 E2.01954
G1 X172.804 Y99.557 E2.04582
G1 X173.584 Y99.676 E2.07206
G1 X174.349 Y99.874 E2.09834
G1 X175.089 Y100.148 E2.12459
G1 X175.798 Y100.496 E2.15086
G1 X176.469 Y100.914 E2.17715
G1 X177.093 Y101.397 E2.2034
G1 X177.666 Y101.94 E2.22965
G1 X178.181 Y102.539 E2.25593
G1 X178.632 Y103.187 E2.28218
G1 X179.016 Y103.878 E2.30848
G1 X179.328 Y104.603 E2.33473
G1 X179.565 Y105.356 E2.36099
G1 X179.724 Y106.13 E2.38727
G1 X179.805 Y106.915 E2.41351
G1 X179.815 Y107.317 E2.42689
G1 X179.815 Y120.349 E2.86033
G1 X180.177 Y120.312 E2.87244
G1 X180.579 Y120.302 E2.88581
G1 X205.579 Y120.302 E3.71732
G1 X206.368 Y120.342 E3.74359
G1 X207.148 Y120.461 E3.76983
G1 X207.913 Y120.659 E3.79612
G1 X208.653 Y120.933 E3.82236
G1 X209.362 Y121.281 E3.84863
G1 X210.033 Y121.699 E3.87493
G1 X210.657 Y122.182 E3.90117
G1 X211.23 Y122.725 E3.92743
G1 X211.745 Y123.324 E3.9537
G1 X212.196 Y123.972 E3.97996
G1 X212.58 Y124.663 E4.00625
G1 X212.892 Y125.388 E4.0325
G1 X213.129 Y126.141 E4.05876
G1 X213.288 Y126.915 E4.08504
G1 X213.369 Y127.7 E4.11129
G1 X213.379 Y128.102 E4.12466
G1 X213.379 Y182.102 E5.92071
G1 X213.339 Y182.891 E5.94699
G1 X213.22 Y183.671 E5.97323
G1 X213.022 Y184.436 E5.99951
G1 X212.748 Y185.176 E6.02576
G1 X212.4 Y185.885 E6.05203
G1 X211.982 Y186.556 E6.07832
G1 X211.499 Y187.18 E6.10457
G1 X210.956 Y187.753 E6.13082
G1 X210.357 Y188.268 E6.1571
G1 X209.709 Y188.719 E6.18335
G1 X209.018 Y189.103 E6.20965
G1 X208.293 Y189.415 E6.2359
G1 X207.54 Y189.652 E6.26216
G1 X206.766 Y189.811 E6.28844
G1 X205.981 Y189.892 E6.31468
G1 X205.579 Y189.902 E6.32806
G1 X181.753 Y189.902 E7.12051
G1 X181.753 Y196.238 E7.33125
G1 X181.713 Y197.027 E7.35753
G1 X181.594 Y197.807 E7.38377
G1 X181.396 Y198.572 E7.41005
G1 X181.122 Y199.312 E7.4363
G1 X180.774 Y200.021 E7.46257
G1 X180.356 Y200.692 E7.48886
G1 X179.873 Y201.316 E7.51511
G1 X179.33 Y201.889 E7.54136
G1 X178.731 Y202.404 E7.56764
G1 X178.083 Y202.855 E7.59389
G1 X177.392 Y203.239 E7.62019
G1 X176.667 Y203.551 E7.64644
G1 X175.914 Y203.788 E7.6727
G1 X175.14 Y203.947 E7.69898
G1 X174.355 Y204.028 E7.72522
G1 X173.953 Y204.038 E7.7386
G1 X119.953 Y204.038 E9.53465
G1 X119.164 Y203.998 E9.56092
G1 X118.384 Y203.879 E9.58717
G1 X117.619 Y203.681 E9.61345
G1 X116.879 Y203.407 E9.63969
G1 X116.17 Y203.059 E9.66596
G1 X115.499 Y202.641 E9.69226
G1 X114.875 Y202.158 E9.7185
G1 X114.302 Y201.615 E9.74476
G1 X113.787 Y201.016 E9.77103
G1 X113.336 Y200.368 E9.79729
G1 X112.952 Y199.677 E9.82358
G1 X112.64 Y198.952 E9.84983
G1 X112.403 Y198.199 E9.87609
G1 X112.244 Y197.425 E9.90237
G1 X112.163 Y196.64 E9.92862
G1 X112.153 Y196.238 E9.94199
G1 X112.153 Y171.238 E10.7735
G1 X112.193 Y170.449 E10.79977
G1 X112.312 Y169.669 E10.82602
G1 X112.51 Y168.904 E10.8523
G1 X112.784 Y168.164 E10.87854
G1 X112.999 Y167.726 E10.89477
G1 X112.691 Y167.283 E10.91272
G1 X112.307 Y166.592 E10.93901
G1 X111.995 Y165.867 E10.96526
G1 X111.758 Y165.114 E10.99152
G1 X111.599 Y164.34 E11.0178
G1 X111.518 Y163.555 E11.04405
G1 X111.508 Y163.153 E11.05742
G1 X111.508 Y138.153 E11.88893
G1 X111.548 Y137.364 E11.9152
G1 X111.636 Y136.789 E11.93455
G1 X111.398 Y136.447 E11.94841
G1 X111.014 Y135.756 E11.9747
G1 X110.702 Y135.031 E12.00095
G1 X110.465 Y134.278 E12.02721
G1 X110.306 Y133.504 E12.05349
G1 X110.225 Y132.719 E12.07974
G1 X110.215 Y132.317 E12.09311
G1 X110.215 Y107.317 E12.92462
G1 X110.255 Y106.528 E12.95089
G1 X110.374 Y105.748 E12.97713
G1 X110.572 Y104.983 E13.00342
G1 X110.846 Y104.243 E13.02966
G1 X111.194 Y103.534 E13.05593
G1 X111.612 Y102.863 E13.08223
G1 X112.095 Y102.239 E13.10847
G0 F6000 X112.49 Y102.394
G1 F1200 X113.031 Y101.847 E13.13406
G1 X113.626 Y101.359 E13.15965
G1 X114.268 Y100.936 E13.18522
G1 X114.951 Y100.581 E13.21083
G1 X115.666 Y100.3 E13.23638
G1 X116.408 Y100.094 E13.26199
G1 X117.166 Y99.966 E13.28756
G1 X118.015 Y99.917 E13.31584
G1 X172.015 Y99.917 E15.11189
G1 X172.783 Y99.957 E15.13747
G1 X173.543 Y100.076 E15.16305
G1 X174.286 Y100.274 E15.18863
G1 X175.005 Y100.548 E15.21422
G1 X175.691 Y100.895 E15.23979
G1 X176.338 Y101.311 E15.26537
G1 X176.938 Y101.792 E15.29095
G1 X177.485 Y102.333 E15.31654
G1 X177.973 Y102.928 E15.34213
G1 X178.396 Y103.57 E15.36771
G1 X178.751 Y104.253 E15.39331
G1 X179.032 Y104.968 E15.41886
G1 X179.238 Y105.71 E15.44447
G1 X179.366 Y106.468 E15.47004
G1 X179.415 Y107.317 E15.49832
G1 X179.415 Y120.804 E15.9469
G1 X179.73 Y120.751 E15.95753
G1 X180.579 Y120.702 E15.98581
G1 X205.579 Y120.702 E16.81732
G1 X206.347 Y120.742 E16.84289
G1 X207.107 Y120.861 E16.86848
G1 X207.85 Y121.059 E16.89406
G1 X208.569 Y121.333 E16.91965
G1 X209.255 Y121.68 E16.94522
G1 X209.902 Y122.096 E16.9708
G1 X210.502 Y122.577 E16.99638
G1 X211.049 Y123.118 E17.02197
G1 X211.537 Y123.713 E17.04756
G1 X211.96 Y124.355 E17.07313
G1 X212.315 Y125.038 E17.09873
G1 X212.596 Y125.753 E17.12428
G1 X212.802 Y126.495 E17.1499
G1 X212.93 Y127.253 E17.17547
G1 X212.979 Y128.102 E17.20375
G1 X212.979 Y182.102 E18.9998
G1 X212.939 Y182.87 E19.02538
G1 X212.82 Y183.63 E19.05096
G1 X212.622 Y184.373 E19.07654
G1 X212.348 Y185.092 E19.10213
G1 X212.001 Y185.778 E19.1277
G1 X211.585 Y186.425 E19.15328
G1 X211.104 Y187.025 E19.17886
G1 X210.563 Y187.572 E19.20445
G1 X209.968 Y188.06 E19.23004
G1 X209.326 Y188.483 E19.25561
G1 X208.643 Y188.838 E19.28121
G1 X207.928 Y189.119 E19.30677
G1 X207.186 Y189.325 E19.33238
G1 X206.428 Y189.453 E19.35795
G1 X205.579 Y189.502 E19.38623
G1 X181.353 Y189.502 E20.19199
G1 X181.353 Y196.238 E20.41603
G1 X181.313 Y197.006 E20.44161
G1 X181.194 Y197.766 E20.4672
G1 X180.996 Y198.509 E20.49277
G1 X180.722 Y199.228 E20.51836
G1 X180.375 Y199.914 E20.54393
G1 X179.959 Y200.561 E20.56951
G1 X179.478 Y201.161 E20.59509
G1 X178.937 Y201.708 E20.62068
G1 X178.342 Y202.196 E20.64627
G1 X177.7 Y202.619 E20.67185
G1 X177.017 Y202.974 E20.69745
G1 X176.302 Y203.255 E20.723
G1 X175.56 Y203.461 E20.74861
G1 X174.802 Y203.589 E20.77418
G1 X173.953 Y203.638 E20.80247
G1 X119.953 Y203.638 E22.59851
G1 X119.185 Y203.598 E22.62409
G1 X118.425 Y203.479 E22.64968
G1 X117.682 Y203.281 E22.67525
G1 X116.963 Y203.007 E22.70084
G1 X116.277 Y202.66 E22.72641
G1 X115.63 Y202.244 E22.752
G1 X115.03 Y201.763 E22.77757
G1 X114.483 Y201.222 E22.80316
G1 X113.995 Y200.627 E22.82876
G1 X113.572 Y199.985 E22.85433
G1 X113.217 Y199.302 E22.87993
G1 X112.936 Y198.587 E22.90548
G1 X112.73 Y197.845 E22.93109
G1 X112.602 Y197.087 E22.95666
G1 X112.553 Y196.238 E22.98495
G1 X112.553 Y171.238 E23.81645
G1 X112.593 Y170.47 E23.84203
G1 X112.712 Y169.71 E23.86761
G1 X112.91 Y168.967 E23.89319
G1 X113.184 Y168.248 E23.91878
G1 X113.458 Y167.706 E23.93898
G1 X112.927 Y166.9 E23.97108
G1 X112.572 Y166.217 E23.99668
G1 X112.291 Y165.502 E24.02224
G1 X112.085 Y164.76 E24.04785
G1 X111.957 Y164.002 E24.07342
G1 X111.908 Y163.153 E24.1017
G1 X111.908 Y138.153 E24.9332
G1 X111.948 Y137.385 E24.95878
G1 X112.055 Y136.703 E24.98174
G1 X111.634 Y136.064 E25.0072
G1 X111.279 Y135.381 E25.0328
G1 X110.998 Y134.666 E25.05835
G1 X110.792 Y133.924 E25.08396
G1 X110.664 Y133.166 E25.10953
G1 X110.615 Y132.317 E25.13781
G1 X110.615 Y107.317 E25.96932
G1 X110.655 Y106.549 E25.9949
G1 X110.774 Y105.789 E26.02048
G1 X110.972 Y105.046 E26.04606
G1 X111.246 Y104.327 E26.07165
G1 X111.593 Y103.641 E26.09722
G1 X112.009 Y102.994 E26.1228
G1 X112.49 Y102.394 E26.14838
G0 F6000 X112.886 Y102.554
G1 F1200 X113.423 Y102.033 E26.17326
G1 X114.013 Y101.574 E26.19813
G1 X114.649 Y101.179 E26.22303
G1 X115.323 Y100.855 E26.2479
G1 X116.028 Y100.605 E26.27278
G1 X116.756 Y100.431 E26.29767
G1 X117.498 Y100.336 E26.32255
G1 X118.015 Y100.317 E26.33976
G1 X172.015 Y100.317 E28.13581
G1 X172.762 Y100.357 E28.16069
G1 X173.5 Y100.476 E28.18555
G1 X174.222 Y100.674 E28.21045
G1 X174.918 Y100.947 E28.23532
G1 X175.581 Y101.294 E28.26021
G1 X176.204 Y101.709 E28.28511
G1 X176.778 Y102.188 E28.30997
G1 X177.299 Y102.725 E28.33486
G1 X177.758 Y103.315 E28.35972
G1 X178.153 Y103.951 E28.38462
G1 X178.477 Y104.625 E28.40949
G1 X178.727 Y105.33 E28.43437
G1 X178.901 Y106.058 E28.45927
G1 X178.996 Y106.8 E28.48415
G1 X179.015 Y107.317 E28.50136
G1 X179.015 Y121.289 E28.96607
G1 X179.32 Y121.216 E28.9765
G1 X180.062 Y121.121 E29.00138
G1 X180.579 Y121.102 E29.01859
G1 X205.579 Y121.102 E29.85009
G1 X206.326 Y121.142 E29.87497
G1 X207.064 Y121.261 E29.89983
G1 X207.786 Y121.459 E29.92473
G1 X208.482 Y121.732 E29.9496
G1 X209.145 Y122.079 E29.97449
G1 X209.768 Y122.494 E29.99939
G1 X210.342 Y122.973 E30.02425
G1 X210.863 Y123.51 E30.04914
G1 X211.322 Y124.1 E30.074
G1 X211.717 Y124.736 E30.0989
G1 X212.041 Y125.41 E30.12377
G1 X212.291 Y126.115 E30.14865
G1 X212.465 Y126.843 E30.17355
G1 X212.56 Y127.585 E30.19843
G1 X212.579 Y128.102 E30.21564
G1 X212.579 Y182.102 E32.01168
G1 X212.539 Y182.849 E32.03656
G1 X212.42 Y183.587 E32.06143
G1 X212.222 Y184.309 E32.08633
G1 X211.949 Y185.005 E32.11119
G1 X211.602 Y185.668 E32.13608
G1 X211.187 Y186.291 E32.16098
G1 X210.708 Y186.865 E32.18585
G1 X210.171 Y187.386 E32.21073
G1 X209.581 Y187.845 E32.23559
G1 X208.945 Y188.24 E32.26049
G1 X208.271 Y188.564 E32.28537
G1 X207.566 Y188.814 E32.31025
G1 X206.838 Y188.988 E32.33514
G1 X206.096 Y189.083 E32.36002
G1 X205.579 Y189.102 E32.37723
G1 X180.953 Y189.102 E33.19629
G1 X180.953 Y196.238 E33.43364
G1 X180.913 Y196.985 E33.45852
G1 X180.794 Y197.723 E33.48338
G1 X180.596 Y198.445 E33.50828
G1 X180.323 Y199.141 E33.53315
G1 X179.976 Y199.804 E33.55804
G1 X179.561 Y200.427 E33.58293
G1 X179.082 Y201.001 E33.6078
G1 X178.545 Y201.522 E33.63269
G1 X177.955 Y201.981 E33.65755
G1 X177.319 Y202.376 E33.68245
G1 X176.645 Y202.7 E33.70732
G1 X175.94 Y202.95 E33.7322
G1 X175.212 Y203.124 E33.7571
G1 X174.47 Y203.219 E33.78198
G1 X173.953 Y203.238 E33.79918
G1 X119.953 Y203.238 E35.59523
G1 X119.206 Y203.198 E35.62011
G1 X118.468 Y203.079 E35.64498
G1 X117.746 Y202.881 E35.66988
G1 X117.05 Y202.608 E35.69474
G1 X116.387 Y202.261 E35.71963
G1 X115.764 Y201.846 E35.74453
G1 X115.19 Y201.367 E35.76939
G1 X114.669 Y200.83 E35.79428
G1 X114.21 Y200.24 E35.81914
G1 X113.815 Y199.604 E35.84404
G1 X113.491 Y198.93 E35.86892
G1 X113.241 Y198.225 E35.8938
G1 X113.067 Y197.497 E35.91869
G1 X112.972 Y196.755 E35.94357
G1 X112.953 Y196.238 E35.96078
G1 X112.953 Y171.238 E36.79228
G1 X112.993 Y170.491 E36.81716
G1 X113.112 Y169.753 E36.84203
G1 X113.31 Y169.031 E36.86693
G1 X113.583 Y168.335 E36.89179
G1 X113.947 Y167.646 E36.91771
G1 X113.565 Y167.155 E36.9384
G1 X113.17 Y166.519 E36.9633
G1 X112.846 Y165.845 E36.98818
G1 X112.596 Y165.14 E37.01305
G1 X112.422 Y164.412 E37.03795
G1 X112.327 Y163.67 E37.06283
G1 X112.308 Y163.153 E37.08004
G1 X112.308 Y138.153 E37.91154
G1 X112.348 Y137.406 E37.93642
G1 X112.48 Y136.586 E37.96405
G1 X112.272 Y136.319 E37.9753
G1 X111.877 Y135.683 E38.0002
G1 X111.553 Y135.009 E38.02508
G1 X111.303 Y134.304 E38.04996
G1 X111.129 Y133.576 E38.07485
G1 X111.034 Y132.834 E38.09973
G1 X111.015 Y132.317 E38.11694
G1 X111.015 Y107.317 E38.94844
G1 X111.055 Y106.57 E38.97332
G1 X111.174 Y105.832 E38.99819
G1 X111.372 Y105.11 E39.02309
G1 X111.645 Y104.414 E39.04795
G1 X111.992 Y103.751 E39.07284
G1 X112.407 Y103.128 E39.09774
G1 X112.886 Y102.554 E39.12261
G0 F6000 X113.28 Y102.719
G1 F1200 X113.814 Y102.226 E39.14678
G1 X114.399 Y101.796 E39.17093
G1 X115.028 Y101.432 E39.1951
G1 X115.693 Y101.139 E39.21927
G1 X116.386 Y100.921 E39.24343
G1 X117.098 Y100.781 E39.26756
G1 X118.015 Y100.717 E39.29814
G1 X172.015 Y100.717 E41.09419
G1 X172.74 Y100.757 E41.11834
G1 X173.457 Y100.876 E41.14251
G1 X174.156 Y101.074 E41.16667
G1 X174.829 Y101.347 E41.19083
G1 X175.468 Y101.692 E41.21498
G1 X176.065 Y102.106 E41.23914
G1 X176.613 Y102.582 E41.26329
G1 X177.106 Y103.116 E41.28746
G1 X177.536 Y103.701 E41.31161
G1 X177.9 Y104.33 E41.33578
G1 X178.193 Y104.995 E41.35995
G1 X178.411 Y105.688 E41.38411
G1 X178.551 Y106.4 E41.40825
G1 X178.615 Y107.317 E41.43882
G1 X178.615 Y121.811 E41.92089
G1 X178.95 Y121.706 E41.93257
G1 X179.662 Y121.566 E41.9567
G1 X180.579 Y121.502 E41.98728
G1 X205.579 Y121.502 E42.81878
G1 X206.304 Y121.542 E42.84293
G1 X207.021 Y121.661 E42.8671
G1 X207.72 Y121.859 E42.89127
G1 X208.393 Y122.132 E42.91542
G1 X209.032 Y122.477 E42.93958
G1 X209.629 Y122.891 E42.96374
G1 X210.177 Y123.367 E42.98788
G1 X210.67 Y123.901 E43.01206
G1 X211.1 Y124.486 E43.0362
G1 X211.464 Y125.115 E43.06037
G1 X211.757 Y125.78 E43.08454
G1 X211.975 Y126.473 E43.10871
G1 X212.115 Y127.185 E43.13284
G1 X212.179 Y128.102 E43.16342
G1 X212.179 Y182.102 E44.95946
G1 X212.139 Y182.827 E44.98361
G1 X212.02 Y183.544 E45.00779
G1 X211.822 Y184.243 E45.03195
G1 X211.549 Y184.916 E45.05611
G1 X211.204 Y185.555 E45.08026
G1 X210.79 Y186.152 E45.10442
G1 X210.314 Y186.7 E45.12857
G1 X209.78 Y187.193 E45.15274
G1 X209.195 Y187.623 E45.17689
G1 X208.566 Y187.987 E45.20106
G1 X207.901 Y188.28 E45.22523
G1 X207.208 Y188.498 E45.24939
G1 X206.496 Y188.638 E45.27352
G1 X205.579 Y188.702 E45.3041
G1 X180.553 Y188.701 E46.13647
G1 X180.553 Y196.238 E46.38715
G1 X180.513 Y196.963 E46.4113
G1 X180.394 Y197.68 E46.43547
G1 X180.196 Y198.379 E46.45964
G1 X179.923 Y199.052 E46.48379
G1 X179.578 Y199.691 E46.50794
G1 X179.164 Y200.288 E46.53211
G1 X178.688 Y200.836 E46.55625
G1 X178.154 Y201.329 E46.58042
G1 X177.569 Y201.759 E46.60457
G1 X176.94 Y202.123 E46.62874
G1 X176.275 Y202.416 E46.65291
G1 X175.582 Y202.634 E46.67707
G1 X174.87 Y202.774 E46.70121
G1 X173.953 Y202.838 E46.73178
G1 X119.953 Y202.838 E48.52783
G1 X119.228 Y202.798 E48.55198
G1 X118.511 Y202.679 E48.57615
G1 X117.812 Y202.481 E48.60032
G1 X117.139 Y202.208 E48.62447
G1 X116.5 Y201.863 E48.64863
G1 X115.903 Y201.449 E48.67279
G1 X115.355 Y200.973 E48.69693
G1 X114.862 Y200.439 E48.7211
G1 X114.432 Y199.854 E48.74525
G1 X114.068 Y199.225 E48.76942
G1 X113.775 Y198.56 E48.79359
G1 X113.557 Y197.867 E48.81776
G1 X113.417 Y197.155 E48.84189
G1 X113.353 Y196.238 E48.87246
G1 X113.353 Y171.238 E49.70397
G1 X113.393 Y170.513 E49.72812
G1 X113.512 Y169.796 E49.75229
G1 X113.71 Y169.097 E49.77646
G1 X113.983 Y168.424 E49.80061
G1 X114.328 Y167.785 E49.82476
G1 X114.451 Y167.608 E49.83193
G1 X114.217 Y167.354 E49.84342
G1 X113.787 Y166.769 E49.86757
G1 X113.423 Y166.14 E49.89174
G1 X113.13 Y165.475 E49.91591
