;FLAVOR:Marlin
;TIME:2144
;Filament used: 1.67751m
;Layer height: 0.2
;MINX:116.787
;MINY:95.264
;MINZ:0.2
;MAXX:162.8
;MAXY:203.051
;MAXZ:5
;Generated with Cura_SteamEngine 5.2.2
M140 S50
M105
M190 S50
M104 S200
M105
M109 S200
M82 ;absolute extrusion mode
M201 X500.00 Y500.00 Z100.00 E5000.00 ;Setup machine max acceleration
M203 X500.00 Y500.00 Z10.00 E50.00 ;Setup machine max feedrate
M204 P500.00 R1000.00 T500.00 ;Setup Print/Retract/Travel acceleration
M205 X8.00 Y8.00 Z0.40 E5.00 ;Setup Jerk
M220 S100 ;Reset Feedrate
M221 S100 ;Reset Flowrate

G28 ;Home

G92 E0 ;Reset Extruder
G1 Z2.0 F3000 ;Move Z Axis up
G1 X10.1 Y20 Z0.28 F5000.0 ;Move to start position
G1 X10.1 Y200.0 Z0.28 F1500.0 E15 ;Draw the first line
G1 X10.4 Y200.0 Z0.28 F5000.0 ;Move to side a little
G1 X10.4 Y20 Z0.28 F1500.0 E30 ;Draw the second line
G92 E0 ;Reset Extruder
G1 Z2.0 F3000 ;Move Z Axis up

G92 E0
G92 E0
G1 F2700 E-5
;LAYER_COUNT:25
;LAYER:0
M107
G0 F6000 X118.667 Y97.986 Z0.2
;TYPE:SKIRT
G1 F2700 E0
G1 F1200 X119.21 Y97.413 E0.02626
G1 X119.809 Y96.898 E0.05253
G1 X120.457 Y96.447 E0.07879
G1 X121.148 Y96.063 E0.10508
G1 X121.873 Y95.751 E0.13133
G1 X122.626 Y95.514 E0.15759
G1 X123.4 Y95.355 E0.18387
G1 X124.185 Y95.274 E0.21012
G1 X124.587 Y95.264 E0.22349
G1 X134.587 Y95.264 E0.55609
G1 X135.376 Y95.304 E0.58237
G1 X136.156 Y95.423 E0.60861
G1 X136.921 Y95.621 E0.6349
G1 X137.661 Y95.895 E0.66114
G1 X138.37 Y96.243 E0.68741
G1 X139.041 Y96.661 E0.7137
G1 X139.665 Y97.144 E0.73995
G1 X140.238 Y97.687 E0.76621
G1 X140.701 Y98.226 E0.78984
G1 X141.561 Y97.748 E0.82256
G1 X142.286 Y97.436 E0.84882
G1 X143.039 Y97.199 E0.87507
G1 X143.813 Y97.04 E0.90135
G1 X144.598 Y96.959 E0.9276
G1 X145 Y96.949 E0.94097
G1 X155 Y96.949 E1.27358
G1 X155.789 Y96.989 E1.29985
G1 X156.569 Y97.108 E1.3261
G1 X157.334 Y97.306 E1.35238
G1 X158.074 Y97.58 E1.37862
G1 X158.783 Y97.928 E1.40489
G1 X159.454 Y98.346 E1.43119
G1 X160.078 Y98.829 E1.45743
G1 X160.651 Y99.372 E1.48369
G1 X161.166 Y99.971 E1.50996
G1 X161.617 Y100.619 E1.53622
G1 X162.001 Y101.31 E1.56251
G1 X162.313 Y102.035 E1.58876
G1 X162.55 Y102.788 E1.61502
G1 X162.709 Y103.562 E1.6413
G1 X162.79 Y104.347 E1.66755
G1 X162.8 Y104.749 E1.68092
G1 X162.8 Y195.251 E4.69103
G1 X162.76 Y196.04 E4.71731
G1 X162.641 Y196.82 E4.74355
G1 X162.443 Y197.585 E4.76983
G1 X162.169 Y198.325 E4.79608
G1 X161.821 Y199.034 E4.82235
G1 X161.403 Y199.705 E4.84864
G1 X160.92 Y200.329 E4.87489
G1 X160.377 Y200.902 E4.90114
G1 X159.778 Y201.417 E4.92742
G1 X159.13 Y201.868 E4.95368
G1 X158.439 Y202.252 E4.97997
G1 X157.714 Y202.564 E5.00622
G1 X156.961 Y202.801 E5.03248
G1 X156.187 Y202.96 E5.05876
G1 X155.402 Y203.041 E5.08501
G1 X155 Y203.051 E5.09838
G1 X145 Y203.051 E5.43098
G1 X144.211 Y203.011 E5.45726
G1 X143.431 Y202.892 E5.4835
G1 X142.666 Y202.694 E5.50978
G1 X141.926 Y202.42 E5.53603
G1 X141.217 Y202.072 E5.5623
G1 X140.546 Y201.654 E5.58859
G1 X139.922 Y201.171 E5.61484
G1 X139.349 Y200.628 E5.64109
G1 X138.9 Y200.106 E5.66399
G1 X138.026 Y200.592 E5.69726
G1 X137.301 Y200.904 E5.72351
G1 X136.548 Y201.141 E5.74976
G1 X135.774 Y201.3 E5.77604
G1 X134.989 Y201.381 E5.80229
G1 X134.587 Y201.391 E5.81567
G1 X124.587 Y201.391 E6.14827
G1 X123.798 Y201.351 E6.17454
G1 X123.018 Y201.232 E6.20079
G1 X122.253 Y201.034 E6.22707
G1 X121.513 Y200.76 E6.25332
G1 X120.804 Y200.412 E6.27958
G1 X120.133 Y199.994 E6.30588
G1 X119.509 Y199.511 E6.33212
G1 X118.936 Y198.968 E6.35838
G1 X118.421 Y198.369 E6.38465
G1 X117.97 Y197.721 E6.41091
G1 X117.586 Y197.03 E6.4372
G1 X117.274 Y196.305 E6.46346
G1 X117.037 Y195.552 E6.48971
G1 X116.878 Y194.778 E6.51599
G1 X116.797 Y193.993 E6.54224
G1 X116.787 Y193.591 E6.55562
G1 X116.787 Y103.064 E9.56656
G1 X116.827 Y102.275 E9.59283
G1 X116.946 Y101.495 E9.61908
G1 X117.144 Y100.73 E9.64536
G1 X117.418 Y99.99 E9.6716
G1 X117.766 Y99.281 E9.69787
G1 X118.184 Y98.61 E9.72417
G1 X118.667 Y97.986 E9.75041
G0 F6000 X119.062 Y98.141
G1 F1200 X119.603 Y97.594 E9.776
G1 X120.198 Y97.106 E9.80159
G1 X120.84 Y96.683 E9.82717
G1 X121.523 Y96.328 E9.85277
G1 X122.238 Y96.047 E9.87832
G1 X122.98 Y95.841 E9.90393
G1 X123.738 Y95.713 E9.9295
G1 X124.587 Y95.664 E9.95778
G1 X134.587 Y95.664 E10.29039
G1 X135.355 Y95.704 E10.31596
G1 X136.115 Y95.823 E10.34155
G1 X136.858 Y96.021 E10.36712
G1 X137.577 Y96.295 E10.39272
G1 X138.263 Y96.642 E10.41829
G1 X138.91 Y97.058 E10.44387
G1 X139.51 Y97.539 E10.46945
G1 X140.057 Y98.08 E10.49503
G1 X140.63 Y98.778 E10.52507
G1 X141.253 Y98.368 E10.54988
G1 X141.936 Y98.013 E10.57548
G1 X142.651 Y97.732 E10.60103
G1 X143.393 Y97.526 E10.62664
G1 X144.151 Y97.398 E10.65221
G1 X145 Y97.349 E10.6805
G1 X155 Y97.349 E11.0131
G1 X155.768 Y97.389 E11.03868
G1 X156.528 Y97.508 E11.06426
G1 X157.271 Y97.706 E11.08984
G1 X157.99 Y97.98 E11.11543
G1 X158.676 Y98.327 E11.141
G1 X159.323 Y98.743 E11.16658
G1 X159.923 Y99.224 E11.19216
G1 X160.47 Y99.765 E11.21775
G1 X160.958 Y100.36 E11.24334
G1 X161.381 Y101.002 E11.26891
G1 X161.736 Y101.685 E11.29451
G1 X162.017 Y102.4 E11.32007
G1 X162.223 Y103.142 E11.34568
G1 X162.351 Y103.9 E11.37125
G1 X162.4 Y104.749 E11.39953
G1 X162.4 Y195.251 E14.40964
G1 X162.36 Y196.019 E14.43522
G1 X162.241 Y196.779 E14.4608
G1 X162.043 Y197.522 E14.48638
G1 X161.769 Y198.241 E14.51197
G1 X161.422 Y198.927 E14.53754
G1 X161.006 Y199.574 E14.56312
G1 X160.525 Y200.174 E14.5887
G1 X159.984 Y200.721 E14.61429
G1 X159.389 Y201.209 E14.63988
G1 X158.747 Y201.632 E14.66545
G1 X158.064 Y201.987 E14.69106
G1 X157.349 Y202.268 E14.71661
G1 X156.607 Y202.474 E14.74222
G1 X155.849 Y202.602 E14.76779
G1 X155 Y202.651 E14.79607
G1 X145 Y202.651 E15.12867
G1 X144.232 Y202.611 E15.15425
G1 X143.472 Y202.492 E15.17984
G1 X142.729 Y202.294 E15.20541
G1 X142.01 Y202.02 E15.23101
G1 X141.324 Y201.673 E15.25657
G1 X140.677 Y201.257 E15.28216
G1 X140.077 Y200.776 E15.30774
G1 X139.53 Y200.235 E15.33332
G1 X138.97 Y199.552 E15.3627
G1 X138.334 Y199.972 E15.38805
G1 X137.651 Y200.327 E15.41365
G1 X136.936 Y200.608 E15.4392
G1 X136.194 Y200.814 E15.46482
G1 X135.436 Y200.942 E15.49038
G1 X134.587 Y200.991 E15.51867
G1 X124.587 Y200.991 E15.85127
G1 X123.819 Y200.951 E15.87685
G1 X123.059 Y200.832 E15.90243
G1 X122.316 Y200.634 E15.92801
G1 X121.597 Y200.36 E15.9536
G1 X120.911 Y200.013 E15.97917
G1 X120.264 Y199.597 E16.00475
G1 X119.664 Y199.116 E16.03033
G1 X119.117 Y198.575 E16.05592
G1 X118.629 Y197.98 E16.08151
G1 X118.206 Y197.338 E16.10708
G1 X117.851 Y196.655 E16.13269
G1 X117.57 Y195.94 E16.15824
G1 X117.364 Y195.198 E16.18385
G1 X117.236 Y194.44 E16.20942
G1 X117.187 Y193.591 E16.2377
G1 X117.187 Y103.064 E19.24864
G1 X117.227 Y102.296 E19.27422
G1 X117.346 Y101.536 E19.29981
G1 X117.544 Y100.793 E19.32538
G1 X117.818 Y100.074 E19.35097
G1 X118.165 Y99.388 E19.37654
G1 X118.581 Y98.741 E19.40213
G1 X119.062 Y98.141 E19.4277
G0 F6000 X119.458 Y98.301
G1 F1200 X119.995 Y97.78 E19.45259
G1 X120.585 Y97.321 E19.47745
G1 X121.221 Y96.926 E19.50235
G1 X121.895 Y96.602 E19.52723
G1 X122.6 Y96.352 E19.55211
G1 X123.328 Y96.178 E19.577
G1 X124.07 Y96.083 E19.60188
G1 X124.587 Y96.064 E19.61909
G1 X134.587 Y96.064 E19.95169
G1 X135.334 Y96.104 E19.97657
G1 X136.072 Y96.223 E20.00143
G1 X136.794 Y96.421 E20.02633
G1 X137.49 Y96.694 E20.0512
G1 X138.153 Y97.041 E20.07609
G1 X138.776 Y97.456 E20.10099
G1 X139.35 Y97.935 E20.12585
G1 X139.871 Y98.472 E20.15074
G1 X140.33 Y99.062 E20.1756
G1 X140.524 Y99.375 E20.18785
G1 X140.998 Y99.006 E20.20783
G1 X141.634 Y98.611 E20.23273
G1 X142.308 Y98.287 E20.2576
G1 X143.013 Y98.037 E20.28248
G1 X143.741 Y97.863 E20.30738
G1 X144.483 Y97.768 E20.33226
G1 X145 Y97.749 E20.34946
G1 X155 Y97.749 E20.68206
G1 X155.747 Y97.789 E20.70695
G1 X156.485 Y97.908 E20.73181
G1 X157.207 Y98.106 E20.75671
G1 X157.903 Y98.379 E20.78158
G1 X158.566 Y98.726 E20.80646
G1 X159.189 Y99.141 E20.83136
G1 X159.763 Y99.62 E20.85623
G1 X160.284 Y100.157 E20.88111
G1 X160.743 Y100.747 E20.90598
G1 X161.138 Y101.383 E20.93088
G1 X161.462 Y102.057 E20.95575
G1 X161.712 Y102.762 E20.98063
G1 X161.886 Y103.49 E21.00552
G1 X161.981 Y104.232 E21.0304
G1 X162 Y104.749 E21.04761
G1 X162 Y195.251 E24.05772
G1 X161.96 Y195.998 E24.0826
G1 X161.841 Y196.736 E24.10746
G1 X161.643 Y197.458 E24.13236
G1 X161.37 Y198.154 E24.15723
G1 X161.023 Y198.817 E24.18212
G1 X160.608 Y199.44 E24.20702
G1 X160.129 Y200.014 E24.23188
G1 X159.592 Y200.535 E24.25677
G1 X159.002 Y200.994 E24.28163
G1 X158.366 Y201.389 E24.30653
G1 X157.692 Y201.713 E24.33141
G1 X156.987 Y201.963 E24.35628
G1 X156.259 Y202.137 E24.38118
G1 X155.517 Y202.232 E24.40606
G1 X155 Y202.251 E24.42327
G1 X145 Y202.251 E24.75587
G1 X144.253 Y202.211 E24.78075
G1 X143.515 Y202.092 E24.80561
G1 X142.793 Y201.894 E24.83051
G1 X142.097 Y201.621 E24.85538
G1 X141.434 Y201.274 E24.88027
G1 X140.811 Y200.859 E24.90517
G1 X140.237 Y200.38 E24.93003
G1 X139.716 Y199.843 E24.95492
G1 X139.257 Y199.253 E24.97978
G1 X139.073 Y198.957 E24.99137
G1 X138.589 Y199.334 E25.01178
G1 X137.953 Y199.729 E25.03668
G1 X137.279 Y200.053 E25.06155
G1 X136.574 Y200.303 E25.08643
G1 X135.846 Y200.477 E25.11132
G1 X135.104 Y200.572 E25.13621
G1 X134.587 Y200.591 E25.15341
G1 X124.587 Y200.591 E25.48601
G1 X123.84 Y200.551 E25.51089
G1 X123.102 Y200.432 E25.53576
G1 X122.38 Y200.234 E25.56066
G1 X121.684 Y199.961 E25.58552
G1 X121.021 Y199.614 E25.61041
G1 X120.398 Y199.199 E25.63531
G1 X119.824 Y198.72 E25.66018
G1 X119.303 Y198.183 E25.68506
G1 X118.844 Y197.593 E25.70992
G1 X118.449 Y196.957 E25.73483
G1 X118.125 Y196.283 E25.7597
G1 X117.875 Y195.578 E25.78458
G1 X117.701 Y194.85 E25.80947
G1 X117.606 Y194.108 E25.83435
G1 X117.587 Y193.591 E25.85156
G1 X117.587 Y103.064 E28.8625
G1 X117.627 Y102.317 E28.88738
G1 X117.746 Y101.579 E28.91224
G1 X117.944 Y100.857 E28.93715
G1 X118.217 Y100.161 E28.96201
G1 X118.564 Y99.498 E28.9869
G1 X118.979 Y98.875 E29.0118
G1 X119.458 Y98.301 E29.03666
G0 F6000 X119.852 Y98.466
G1 F1200 X120.386 Y97.973 E29.06084
G1 X120.971 Y97.543 E29.08498
G1 X121.6 Y97.179 E29.10916
G1 X122.265 Y96.886 E29.13332
G1 X122.958 Y96.668 E29.15749
G1 X123.67 Y96.528 E29.18162
G1 X124.587 Y96.464 E29.2122
G1 X134.587 Y96.464 E29.5448
G1 X135.312 Y96.504 E29.56895
G1 X136.029 Y96.623 E29.59312
G1 X136.728 Y96.821 E29.61728
G1 X137.401 Y97.094 E29.64144
G1 X138.04 Y97.439 E29.66559
G1 X138.637 Y97.853 E29.68976
G1 X139.185 Y98.329 E29.7139
G1 X139.678 Y98.863 E29.73807
G1 X140.108 Y99.448 E29.76222
G1 X140.428 Y100.001 E29.78347
G1 X140.799 Y99.658 E29.80028
G1 X141.384 Y99.228 E29.82442
G1 X142.013 Y98.864 E29.84859
G1 X142.678 Y98.571 E29.87276
G1 X143.371 Y98.353 E29.89693
G1 X144.083 Y98.213 E29.92106
G1 X145 Y98.149 E29.95164
G1 X155 Y98.149 E30.28424
G1 X155.725 Y98.189 E30.30839
G1 X156.442 Y98.308 E30.33256
G1 X157.141 Y98.506 E30.35672
G1 X157.814 Y98.779 E30.38088
G1 X158.453 Y99.124 E30.40503
G1 X159.05 Y99.538 E30.4292
G1 X159.598 Y100.014 E30.45334
G1 X160.091 Y100.548 E30.47751
G1 X160.521 Y101.133 E30.50166
G1 X160.885 Y101.762 E30.52583
G1 X161.178 Y102.427 E30.55
G1 X161.396 Y103.12 E30.57416
G1 X161.536 Y103.832 E30.5983
G1 X161.6 Y104.749 E30.62887
G1 X161.6 Y195.251 E33.63898
G1 X161.56 Y195.976 E33.66313
G1 X161.441 Y196.693 E33.6873
G1 X161.243 Y197.392 E33.71147
G1 X160.97 Y198.065 E33.73562
G1 X160.625 Y198.704 E33.75978
G1 X160.211 Y199.301 E33.78394
G1 X159.735 Y199.849 E33.80808
G1 X159.201 Y200.342 E33.83226
G1 X158.616 Y200.772 E33.8564
G1 X157.987 Y201.136 E33.88057
G1 X157.322 Y201.429 E33.90474
G1 X156.629 Y201.647 E33.92891
G1 X155.917 Y201.787 E33.95304
G1 X155 Y201.851 E33.98362
G1 X145 Y201.851 E34.31622
G1 X144.275 Y201.811 E34.34037
G1 X143.558 Y201.692 E34.36454
G1 X142.859 Y201.494 E34.3887
G1 X142.186 Y201.221 E34.41286
G1 X141.547 Y200.876 E34.43701
G1 X140.95 Y200.462 E34.46118
G1 X140.402 Y199.986 E34.48532
G1 X139.909 Y199.452 E34.50949
G1 X139.479 Y198.867 E34.53364
G1 X139.169 Y198.331 E34.55423
G1 X138.788 Y198.682 E34.57146
G1 X138.203 Y199.112 E34.59561
G1 X137.574 Y199.476 E34.61978
G1 X136.909 Y199.769 E34.64395
G1 X136.216 Y199.987 E34.66812
G1 X135.504 Y200.127 E34.69225
G1 X134.587 Y200.191 E34.72282
G1 X124.587 Y200.191 E35.05543
G1 X123.862 Y200.151 E35.07958
G1 X123.145 Y200.032 E35.10375
G1 X122.446 Y199.834 E35.12791
G1 X121.773 Y199.561 E35.15207
G1 X121.134 Y199.216 E35.17622
G1 X120.537 Y198.802 E35.20039
G1 X119.989 Y198.326 E35.22453
G1 X119.496 Y197.792 E35.2487
G1 X119.066 Y197.207 E35.27285
G1 X118.702 Y196.578 E35.29702
G1 X118.409 Y195.913 E35.32119
G1 X118.191 Y195.22 E35.34535
G1 X118.051 Y194.508 E35.36949
G1 X117.987 Y193.591 E35.40006
G1 X117.987 Y103.064 E38.411
G1 X118.027 Y102.339 E38.43515
G1 X118.146 Y101.622 E38.45932
G1 X118.344 Y100.923 E38.48349
G1 X118.617 Y100.25 E38.50764
G1 X118.962 Y99.611 E38.5318
G1 X119.376 Y99.014 E38.55596
G1 X119.852 Y98.466 E38.5801
G0 F6000 X120.246 Y98.637
G1 F1200 X120.776 Y98.173 E38.60353
G1 X121.355 Y97.773 E38.62694
G1 X121.976 Y97.441 E38.65036
G1 X122.63 Y97.181 E38.67377
G1 X123.31 Y96.997 E38.6972
G1 X124.006 Y96.891 E38.72061
G1 X124.587 Y96.864 E38.73996
G1 X134.587 Y96.864 E39.07256
G1 X135.29 Y96.904 E39.09598
G1 X135.984 Y97.023 E39.1194
G1 X136.659 Y97.221 E39.1428
G1 X137.308 Y97.493 E39.1662
G1 X137.922 Y97.838 E39.18962
G1 X138.493 Y98.249 E39.21302
G1 X139.014 Y98.723 E39.23645
G1 X139.478 Y99.253 E39.25988
G1 X139.878 Y99.832 E39.28329
G1 X140.21 Y100.453 E39.30671
G1 X140.31 Y100.705 E39.31572
G1 X140.659 Y100.322 E39.33296
G1 X141.189 Y99.858 E39.35639
G1 X141.768 Y99.458 E39.37979
G1 X142.389 Y99.126 E39.40322
G1 X143.043 Y98.866 E39.42662
G1 X143.723 Y98.682 E39.45005
G1 X144.419 Y98.576 E39.47347
G1 X145 Y98.549 E39.49281
G1 X155 Y98.549 E39.82542
G1 X155.703 Y98.589 E39.84884
G1 X156.397 Y98.708 E39.87225
G1 X157.072 Y98.906 E39.89565
G1 X157.721 Y99.178 E39.91906
G1 X158.335 Y99.523 E39.94248
G1 X158.906 Y99.934 E39.96588
G1 X159.427 Y100.408 E39.98931
G1 X159.891 Y100.938 E40.01274
G1 X160.291 Y101.517 E40.03614
G1 X160.623 Y102.138 E40.05956
G1 X160.883 Y102.792 E40.08297
G1 X161.067 Y103.472 E40.1064
G1 X161.173 Y104.168 E40.12982
G1 X161.2 Y104.749 E40.14916
G1 X161.2 Y195.251 E43.15927
G1 X161.16 Y195.954 E43.18269
G1 X161.041 Y196.648 E43.20611
G1 X160.843 Y197.323 E43.22951
G1 X160.571 Y197.972 E43.25291
G1 X160.226 Y198.586 E43.27634
G1 X159.815 Y199.157 E43.29974
G1 X159.341 Y199.678 E43.32316
G1 X158.811 Y200.142 E43.34659
G1 X158.232 Y200.542 E43.37
G1 X157.611 Y200.874 E43.39342
G1 X156.957 Y201.134 E43.41683
G1 X156.277 Y201.318 E43.44026
G1 X155.581 Y201.424 E43.46367
G1 X155 Y201.451 E43.48302
G1 X145 Y201.451 E43.81562
G1 X144.297 Y201.411 E43.83904
G1 X143.603 Y201.292 E43.86246
G1 X142.928 Y201.094 E43.88586
G1 X142.279 Y200.822 E43.90926
G1 X141.665 Y200.477 E43.93269
G1 X141.094 Y200.066 E43.95609
G1 X140.573 Y199.592 E43.97951
G1 X140.109 Y199.062 E44.00294
G1 X139.709 Y198.483 E44.02635
G1 X139.377 Y197.862 E44.04977
G1 X139.284 Y197.627 E44.05817
G1 X138.928 Y198.018 E44.07576
G1 X138.398 Y198.482 E44.09919
G1 X137.819 Y198.882 E44.1226
G1 X137.198 Y199.214 E44.14602
G1 X136.544 Y199.474 E44.16943
G1 X135.864 Y199.658 E44.19286
G1 X135.168 Y199.764 E44.21627
G1 X134.587 Y199.791 E44.23562
G1 X124.587 Y199.791 E44.56822
G1 X123.884 Y199.751 E44.59164
G1 X123.19 Y199.632 E44.61506
G1 X122.515 Y199.434 E44.63845
G1 X121.866 Y199.162 E44.66186
G1 X121.252 Y198.817 E44.68528
G1 X120.681 Y198.406 E44.70868
G1 X120.16 Y197.932 E44.73211
G1 X119.696 Y197.402 E44.75554
G1 X119.296 Y196.823 E44.77895
